X: 20726
T: Johnny Cope
R: polka
M: 2/4
K: Adorian
|:EA AB/d/ |g/e/d/B/ c/B/A/G/|EG G/F/G/A/|B/c/d/B/ c/B/A/G/|
EA AB|c/B/c/d/ e/g/e/d/|Ba g/f/e/d/|1 BA A/B/A/G/:|2 BA A>B||
|:Aa Aa|Aa g/f/e/d/|Bg Bg|Bg gf/g/|
ea af|gf/g/ ed|Ba g/f/e/d/|1 BA A>B:|2 BA A/B/A/G/||

